X: 23731
T: Little Beggarman, The
R: reel
M: 4/4
K: Amixolydian
AG|E2A2 AB cd|ef ec d2cd|e2A2 AB cA|BA EF G2 GF|
E2A2 AB cd|ef ec d2cd|e a2 b ag ed|c2A2A2:|
|:ef|gf ga gf ef|gf ec d2cd|e2A2 AB cA|BA EF G3F|
E2A2 AB cd|ef ec d2cd|e a2 b ag ed|c2 A2 A2:|

